X: 22041
T: Knights Of Saint Patrick, The
R: jig
M: 6/8
K: Dmajor
dcd faf|dcd AFD|GBG FAF|EFG AB/=c/^c|
dcd faf|dcd AFD|GBd FAd|BGE D3:|
aba fdf|Adf afd|gfg ece|Ace gfe|
aba fdf|Adf afd|afd bge|dAF D3|
aba fdf|Adf afd|gfg ece|Ace gfe|
dcd ede|fef gfg|afd bge|dAF D3||

